X: 21802
T: OLD CAMBRIDGE HORNPIPE
R: hornpipe
B: K\"ohler's Violin Repository, v.2, 1885 p.180 #2
F: http://www.archive.org/details/klersviolinrepos02rugg
Z: 2012 John Chambers <jc:trillian.mit.edu>
M: C|
L: 1/8
K: A
u((3EFG) |\
A2{B}A>G Ac ((3efg) | a2{b}ag (ae)cA | fdBA GABc | dBcA GEFG |\
A2{B}A>G Ac ((3efg) | a2{b}ag (ae)cA | fdBA GABd | c2A2A2 :|
|: u(cd) |\
e2{g}a2 ecAc | d2{d}b2 BcdB | gbeg begb | ac'ea c'eac' |\
e'2c'2 a2e2 | fdBf ecAc | (B2{cBAB})(gf) edBG | Aaec A2 :|

%%sep 2 1 500

